packages/foundations/assets/icons/functional/images/technology/qr_code_scan_32.svg

<svg width="32" height="32" viewBox="0 0 32 32" fill="none" xmlns="http://www.w3.org/2000/svg">
<g clip-path="url(#clip0_2214_6584)">
<path fill-rule="evenodd" clip-rule="evenodd" d="M12.985 22.4855C12.985 22.7665 12.766 22.9855 12.485 22.9855H9.48501C9.20401 22.9855 8.98501 22.7665 8.98501 22.4855V19.4855C8.98501 19.2045 9.20401 18.9855 9.48501 18.9855H12.485C12.766 18.9855 12.985 19.2045 12.985 19.4855V22.4855ZM12.485 16.9855H9.48501C8.11001 16.9855 6.98501 18.1105 6.98501 19.4855V22.4855C6.98501 23.8605 8.11001 24.9855 9.48501 24.9855H12.485C13.86 24.9855 14.985 23.8605 14.985 22.4855V19.4855C14.985 18.1105 13.86 16.9855 12.485 16.9855ZM12.985 12.4855C12.985 12.7665 12.766 12.9855 12.485 12.9855H9.48501C9.20401 12.9855 8.98501 12.7665 8.98501 12.4855V9.4855C8.98501 9.2045 9.20401 8.9855 9.48501 8.9855H12.485C12.766 8.9855 12.985 9.2045 12.985 9.4855V12.4855ZM12.485 6.9855H9.48501C8.11001 6.9855 6.98501 8.1105 6.98501 9.4855V12.4855C6.98501 13.8605 8.11001 14.9855 9.48501 14.9855H12.485C13.86 14.9855 14.985 13.8605 14.985 12.4855V9.4855C14.985 8.1105 13.86 6.9855 12.485 6.9855ZM17.985 16.9855C17.454 16.9855 16.985 17.4545 16.985 17.9855V20.9855C16.985 21.5165 17.454 21.9855 17.985 21.9855H19.985V23.9855C19.985 24.5485 20.423 24.9855 20.985 24.9855H23.985C24.548 24.9855 24.985 24.5485 24.985 23.9855V20.9855C24.985 20.4235 24.548 19.9855 23.985 19.9855H21.985V17.9855C21.985 17.4545 21.516 16.9855 20.985 16.9855H17.985ZM22.985 12.4855C22.985 12.7665 22.766 12.9855 22.485 12.9855H19.485C19.204 12.9855 18.985 12.7665 18.985 12.4855V9.4855C18.985 9.2045 19.204 8.9855 19.485 8.9855H22.485C22.766 8.9855 22.985 9.2045 22.985 9.4855V12.4855ZM22.485 6.9855H19.485C18.11 6.9855 16.985 8.1105 16.985 9.4855V12.4855C16.985 13.8605 18.11 14.9855 19.485 14.9855H22.485C23.86 14.9855 24.985 13.8605 24.985 12.4855V9.4855C24.985 8.1105 23.86 6.9855 22.485 6.9855ZM23.972 2.0025C23.382 2.0035 22.972 2.4895 22.972 3.0025C22.972 3.5545 23.42 4.0025 23.972 4.0025C24.648 4.0005 25.324 4.0005 26 4.0025C27.176 4.0055 28 4.9475 28 6.0025C27.989 6.6545 27.979 7.3065 27.972 7.9595C27.966 8.5265 28.445 8.9665 28.958 8.9735C29.51 8.9815 29.964 8.5405 29.972 7.9885C29.984 7.3305 29.993 6.6735 30 6.0165C30.025 3.7685 28.143 2.0025 26 2.0025C25.324 1.9995 24.648 1.9995 23.972 2.0025ZM6.00201 2.0015C3.70701 2.0065 2.00201 3.8585 2.00201 6.0015C1.99901 6.6675 1.99901 7.3295 2.00201 7.9875C2.00301 8.5515 2.48901 8.9725 3.00201 8.9725C3.55401 8.9725 4.00201 8.5245 4.00201 7.9725C4.00001 7.3155 4.00001 6.6585 4.00201 6.0015C4.00501 4.8585 4.94701 4.0015 6.00201 4.0015C6.65901 4.0035 7.31601 4.0035 7.97301 4.0015C8.54801 3.9995 8.97301 3.5135 8.97301 3.0015C8.97301 2.4485 8.52501 2.0015 7.97301 2.0015C7.31601 1.9995 6.65901 1.9995 6.00201 2.0015ZM2.00201 23.9695C2.00001 24.6455 2.00001 25.3215 2.00201 25.9985C2.00701 28.2655 3.85901 29.9985 6.00201 29.9985C6.65901 30.0005 7.31601 30.0005 7.97301 29.9985C8.55401 29.9965 8.97301 29.5105 8.97301 28.9985C8.97301 28.4455 8.52501 27.9985 7.97301 27.9985C7.31601 27.9995 6.65901 27.9995 6.00201 27.9985C4.82901 27.9955 4.00201 27.0525 4.00201 25.9985C4.00401 25.3215 4.00401 24.6455 4.00201 23.9695C4.00001 23.3685 3.51401 22.9695 3.00201 22.9695C2.44901 22.9695 2.00201 23.4175 2.00201 23.9695ZM28.998 22.9705C29.511 22.9705 29.996 23.3395 29.998 23.9705C30.001 24.6465 30.001 25.3225 29.998 25.9985C29.998 28.1415 28.295 29.9935 25.998 29.9985C25.322 30.0005 24.646 30.0005 23.97 29.9985C23.418 29.9985 22.97 29.5515 22.97 28.9985C22.97 28.4865 23.392 28.0005 23.97 27.9985C24.646 27.9965 25.322 27.9965 25.998 27.9985C27.053 27.9985 27.996 27.1205 27.998 25.9985C28 25.3225 28 24.6465 27.998 23.9705C27.998 23.4185 28.446 22.9705 28.998 22.9705Z" fill="#1A1C1F"/>
</g>
<defs>
<clipPath id="clip0_2214_6584">
<rect width="32" height="32" fill="white"/>
</clipPath>
</defs>
</svg>

<svg xmlns="http://www.w3.org/2000/svg" width="32" height="32" fill="none"><g clip-path="url(#a)"><path fill="#1A1C1F" fill-rule="evenodd" d="M12.985 22.486c0 .28-.219.5-.5.5h-3a.494.494 0 0 1-.5-.5v-3c0-.282.219-.5.5-.5h3c.281 0 .5.218.5.5zm-.5-5.5h-3a2.507 2.507 0 0 0-2.5 2.5v3c0 1.374 1.125 2.5 2.5 2.5h3c1.375 0 2.5-1.126 2.5-2.5v-3c0-1.376-1.125-2.5-2.5-2.5m.5-4.5c0 .28-.219.5-.5.5h-3a.494.494 0 0 1-.5-.5v-3c0-.282.219-.5.5-.5h3c.281 0 .5.218.5.5zm-.5-5.5h-3a2.507 2.507 0 0 0-2.5 2.5v3c0 1.374 1.125 2.5 2.5 2.5h3c1.375 0 2.5-1.126 2.5-2.5v-3c0-1.376-1.125-2.5-2.5-2.5m5.5 10c-.531 0-1 .468-1 1v3c0 .53.469 1 1 1h2v2c0 .563.438 1 1 1h3c.563 0 1-.437 1-1v-3c0-.562-.437-1-1-1h-2v-2c0-.532-.469-1-1-1zm5-4.5c0 .28-.219.5-.5.5h-3a.494.494 0 0 1-.5-.5v-3c0-.282.219-.5.5-.5h3c.281 0 .5.218.5.5zm-.5-5.5h-3a2.507 2.507 0 0 0-2.5 2.5v3c0 1.374 1.125 2.5 2.5 2.5h3c1.375 0 2.5-1.126 2.5-2.5v-3c0-1.376-1.125-2.5-2.5-2.5m1.487-4.983a1.001 1.001 0 0 0 0 2q1.014-.005 2.028 0c1.176.002 2 .944 2 2q-.017.976-.028 1.957a1.017 1.017 0 0 0 .986 1.013 1 1 0 0 0 1.014-.985q.018-.987.028-1.972c.025-2.247-1.857-4.013-4-4.013a229 229 0 0 0-2.028 0M6.002 2a3.99 3.99 0 0 0-4 4q-.004 1 0 1.986c.001.565.487.986 1 .986a1 1 0 0 0 1-1q-.003-.985 0-1.971c.003-1.143.945-2 2-2q.986.003 1.971 0c.575-.002 1-.488 1-1a1 1 0 0 0-1-1q-.985-.003-1.971 0m-4 21.969a343 343 0 0 0 0 2.029c.005 2.267 1.857 4 4 4q.986.003 1.971 0c.581-.002 1-.488 1-1a1 1 0 0 0-1-1H6.002a1.99 1.99 0 0 1-2-2q.003-1.016 0-2.03a.995.995 0 0 0-1-1 1 1 0 0 0-1 1m26.996-1c.513 0 .998.37 1 1q.004 1.015 0 2.029a3.99 3.99 0 0 1-4 4q-1.014.003-2.028 0a1 1 0 0 1-1-1c0-.512.422-.998 1-1q1.014-.003 2.028 0c1.055 0 1.998-.878 2-2q.003-1.014 0-2.028a1 1 0 0 1 1-1" clip-rule="evenodd"/></g><defs><clipPath id="a"><path fill="#fff" d="M0 0h32v32H0z"/></clipPath></defs></svg>
